<?xml version="1.0" encoding="UTF-8"?>
<map version="1.10" tiledversion="1.11.0" orientation="orthogonal" renderorder="right-down" width="10" height="12" tilewidth="64" tileheight="64" infinite="0" nextlayerid="3" nextobjectid="1">
 <tileset firstgid="1" source="tiles.tsx"/>
 <layer id="1" name="Background" width="10" height="12">
  <data encoding="csv">
2,2,2,2,2,2,2,2,2,2,
2,3,3,3,3,3,3,3,3,2,
2,3,1,1,1,1,1,1,3,2,
2,3,1,4,4,4,4,1,3,2,
2,3,1,4,5,5,4,1,3,2,
2,3,1,4,5,5,4,1,3,2,
2,3,1,4,4,4,4,1,3,2,
2,3,1,1,1,1,1,1,3,2,
2,3,3,3,3,3,3,3,3,2,
2,2,2,2,2,2,2,2,2,2,
1,1,1,1,1,1,1,1,1,1,
1,1,1,1,1,1,1,1,1,1
</data>
 </layer>
 <layer id="2" name="Decorations" width="10" height="12">
  <data encoding="csv">
0,0,0,0,0,0,0,0,0,0,
0,6,0,0,0,0,0,0,6,0,
0,0,0,0,0,0,0,0,0,0,
0,0,0,0,0,0,0,0,0,0,
0,0,0,0,0,0,0,0,0,0,
0,0,0,0,0,0,0,0,0,0,
0,0,0,0,0,0,0,0,0,0,
0,0,0,0,0,0,0,0,0,0,
0,6,0,0,0,0,0,0,6,0,
0,0,0,0,0,0,0,0,0,0,
0,0,0,0,0,0,0,0,0,0,
0,0,0,0,0,0,0,0,0,0
</data>
 </layer>
</map>
